X:2005 
T:[Yn] Jerrey yn Theihll 
N:See also KV418
C:Henry Clague, Ballanorris
O:Isle of Man
S:Traditional 
Z:Clague collection
B:Kiaull Vannin, #5
M:2/4 
L:1/8 
K:D 
F|Bc de|fe df|ed ce|dc B F|Bc de|fe df|e2 d2| 
c2 dc|B2 GG|GF dc|B2 GG|GF z e|d2 c2|B3|| 
